!!!COM: Igor (Fyodorovich) Stravinsky
!!!OTL: [T391_Str-w31p10h19m1-h20m3]
**kern	**dynam	**kern	**dynam	**kern	**dynam	**kern	**dynam	**kern	**kern	**dynam	**kern	**kern	**kern	**dynam	**kern	**dynam	**kern	**kern	**dynam	**kern	**dynam	**kern	**dynam
*part14	*part14	*part13	*part13	*part12	*part12	*part11	*part11	*part10	*part9	*part9	*part8	*part7	*part6	*part6	*part5	*part5	*part4	*part3	*part3	*part2	*part2	*part1	*part1
*staff14	*	*staff13	*	*staff12	*	*staff11	*	*staff10	*staff9	*	*staff8	*staff7	*staff6	*	*staff5	*	*staff4	*staff3	*	*staff2	*	*staff1	*
*I"Contrabass	*	*I"Violoncello	*	*I"Violin Solo	*	*I"Timpani	*	*I"Trombone basso	*I"Trombone 1.2.	*	*I"Trumpet in C 3.	*I"Trumpet in C 1.2.	*I"Horn in F 1.2.	*	*I"Clarinet in A 1.	*	*I"Clarinet Piccolo in Eb	*I"English Horn	*	*I"Flute 1.	*	*I"Piccolo	*
*I'Cb.	*	*I'Vc.	*	*I'Solo Vln.	*	*I'Timp.	*	*I'3.Tbn.	*I'1.2.Tbn.	*	*I'C 3.Tpt.	*I'C 1.2.Tpt.	*I'F 1.2.Hn.	*	*I'A 1.Cl.	*	*I'Eb Cl.	*I'Eng. Hrn.	*	*I'1.Fl.	*	*I'Picc.	*
!!pagebreak:original
*clefF4	*	*clefF4	*	*clefG2	*	*clefF4	*	*clefF4	*clefF4	*	*clefG2	*clefG2	*clefG2	*	*clefG2	*	*clefG2	*clefG2	*	*clefG2	*	*clefG2	*
*ITrd0c0	*	*	*	*	*	*	*	*	*	*	*	*	*ITrd4c7	*	*ITrd2c3	*	*ITrd-2c-3	*ITrd4c7	*	*	*	*ITrd0c0	*
*k[f#c#]	*	*k[f#c#]	*	*k[f#c#]	*	*k[f#c#]	*	*k[f#c#]	*k[f#c#]	*	*k[f#c#]	*k[f#c#]	*k[b-]	*	*k[f#c#]	*	*k[b-e-a-]	*k[f#c#]	*	*k[f#c#]	*	*k[f#c#]	*
*D:	*	*D:	*	*D:	*	*D:	*	*D:	*D:	*	*D:	*D:	*F:	*	*D:	*	*	*D:	*	*D:	*	*D:	*
*M2/4	*	*M2/4	*	*M2/4	*	*M2/4	*	*M2/4	*M2/4	*	*M2/4	*M2/4	*M2/4	*	*M2/4	*	*M2/4	*M2/4	*	*M2/4	*	*M2/4	*
=1	=1	=1	=1	=1	=1	=1	=1	=1	=1	=1	=1	=1	=1	=1	=1	=1	=1	=1	=1	=1	=1	=1	=1
*	*	*	*	*tremolo	*	*	*	*	*	*	*	*	*	*	*	*	*	*	*	*	*	*	*
!	!	!	!	!LO:TX:t=[quarter]=96	!	!	!	!	!	!	!	!	!	!	!	!	!	!	!	!	!	!	!
!	!	!	!	!LO:TX:b:t=[mp]	!	!	!	!LO:TX:b:t=mp leggiero	!	!	!	!	!	!	!	!	!LO:TX:b:t=[mf]	!	!	!	!	!LO:TX:t=[quarter]=96	!
.	.	.	.	(8qaa/ 8qeee	.	.	.	.	.	.	.	.	.	.	.	.	.	.	.	.	.	.	.
*	*	*	*	*^	*	*	*	*	*	*	*	*	*	*	*	*	*	*	*	*	*	*	*
2r	.	2r	.	4ee)	(64anLLLL	.	2r	.	8AA'	8r	.	8r	8r	2r	.	2r	.	16eeX'	2r	.	2r	.	2r	.
.	.	.	.	.	64ccn)	.	.	.	.	.	.	.	.	.	.	.	.	.	.	.	.	.	.	.
.	.	.	.	.	64an	.	.	.	.	.	.	.	.	.	.	.	.	.	.	.	.	.	.	.
.	.	.	.	.	64ccn)	.	.	.	.	.	.	.	.	.	.	.	.	.	.	.	.	.	.	.
.	.	.	.	.	64an	.	.	.	.	.	.	.	.	.	.	.	.	8.r	.	.	.	.	.	.
.	.	.	.	.	64ccn)	.	.	.	.	.	.	.	.	.	.	.	.	.	.	.	.	.	.	.
.	.	.	.	.	64an	.	.	.	.	.	.	.	.	.	.	.	.	.	.	.	.	.	.	.
.	.	.	.	.	64ccn)	.	.	.	.	.	.	.	.	.	.	.	.	.	.	.	.	.	.	.
!	!	!	!	!	!	!	!	!	!	!LO:TX:b:t=mp leggiero	!	!LO:TX:b:t=mp leggiero	!LO:TX:b:t=mp leggiero	!	!	!	!	!	!	!	!	!	!	!
.	.	.	.	.	64an	.	.	.	8r	8D'L 8F#	.	8cn'L	(8f#'L 8ccn	.	.	.	.	.	.	.	.	.	.	.
.	.	.	.	.	64ccn)	.	.	.	.	.	.	.	.	.	.	.	.	.	.	.	.	.	.	.
.	.	.	.	.	64an	.	.	.	.	.	.	.	.	.	.	.	.	.	.	.	.	.	.	.
.	.	.	.	.	64ccn)	.	.	.	.	.	.	.	.	.	.	.	.	.	.	.	.	.	.	.
.	.	.	.	.	64an	.	.	.	.	.	.	.	.	.	.	.	.	.	.	.	.	.	.	.
.	.	.	.	.	64ccn)	.	.	.	.	.	.	.	.	.	.	.	.	.	.	.	.	.	.	.
.	.	.	.	.	64an	.	.	.	.	.	.	.	.	.	.	.	.	.	.	.	.	.	.	.
.	.	.	.	.	64ccn)JJJJ	.	.	.	.	.	.	.	.	.	.	.	.	.	.	.	.	.	.	.
*	*	*	*	*v	*v	*	*	*	*	*	*	*	*	*	*	*	*	*	*	*	*	*	*	*
.	.	.	.	8.f#L 8.dd	.	.	.	8r	8D'J 8F#	.	8c'J	8f#'J 8cc)	.	.	.	.	4r	.	.	.	.	.	.
.	.	.	.	.	.	.	.	8GG'	8r'	.	8r'	8r	.	.	.	.	.	.	.	.	.	.	.
.	.	.	.	(16fff#Jk	.	.	.	.	.	.	.	.	.	.	.	.	.	.	.	.	.	.	.
=2	=2	=2	=2	=2	=2	=2	=2	=2	=2	=2	=2	=2	=2	=2	=2	=2	=2	=2	=2	=2	=2	=2	=2
*	*	*	*	*^	*	*	*	*	*	*	*	*	*	*	*	*	*	*	*	*	*	*	*
2r	.	2r	.	4cc#X)	(64dLLLL	.	2r	.	8r'	8D' 8B	.	8d'	(8b'L 8dd	2r	.	2r	.	2r	2r	.	2r	.	2r	.
.	.	.	.	.	64g)	.	.	.	.	.	.	.	.	.	.	.	.	.	.	.	.	.	.	.
.	.	.	.	.	64d	.	.	.	.	.	.	.	.	.	.	.	.	.	.	.	.	.	.	.
.	.	.	.	.	64g)	.	.	.	.	.	.	.	.	.	.	.	.	.	.	.	.	.	.	.
.	.	.	.	.	64d	.	.	.	.	.	.	.	.	.	.	.	.	.	.	.	.	.	.	.
.	.	.	.	.	64g)	.	.	.	.	.	.	.	.	.	.	.	.	.	.	.	.	.	.	.
.	.	.	.	.	64d	.	.	.	.	.	.	.	.	.	.	.	.	.	.	.	.	.	.	.
.	.	.	.	.	64g)	.	.	.	.	.	.	.	.	.	.	.	.	.	.	.	.	.	.	.
.	.	.	.	.	64d	.	.	.	8GG'L	8r	.	8r	8b'J 8dd)	.	.	.	.	.	.	.	.	.	.	.
.	.	.	.	.	64g)	.	.	.	.	.	.	.	.	.	.	.	.	.	.	.	.	.	.	.
.	.	.	.	.	64d	.	.	.	.	.	.	.	.	.	.	.	.	.	.	.	.	.	.	.
.	.	.	.	.	64g)	.	.	.	.	.	.	.	.	.	.	.	.	.	.	.	.	.	.	.
.	.	.	.	.	64d	.	.	.	.	.	.	.	.	.	.	.	.	.	.	.	.	.	.	.
.	.	.	.	.	64g)	.	.	.	.	.	.	.	.	.	.	.	.	.	.	.	.	.	.	.
.	.	.	.	.	64d	.	.	.	.	.	.	.	.	.	.	.	.	.	.	.	.	.	.	.
.	.	.	.	.	64g)JJJJ	.	.	.	.	.	.	.	.	.	.	.	.	.	.	.	.	.	.	.
*	*	*	*	*Xtremolo	*	*	*	*	*	*	*	*	*	*	*	*	*	*	*	*	*	*	*	*
.	.	.	.	(8.bL	8d	.	.	.	8GG'J	8r	.	8r	8r	.	.	.	.	.	.	.	.	.	.	.
.	.	.	.	.	.	.	.	.	.	.	.	.	.	.	.	.	.	.	.	.	.	.	.	.
*	*	*	*	*v	*v	*	*	*	*	*	*	*	*	*	*	*	*	*	*	*	*	*	*	*
.	.	.	.	.	8ryy	.	.	8r'	8D' 8B	.	8d'	(8b'L 8dd	.	.	.	.	.	.	.	.	.	.	.
.	.	.	.	16dddJ)	.	.	.	.	.	.	.	.	.	.	.	.	.	.	.	.	.	.	.
=3	=3	=3	=3	=3	=3	=3	=3	=3	=3	=3	=3	=3	=3	=3	=3	=3	=3	=3	=3	=3	=3	=3	=3
2r	.	2r	.	8.AL 8.a	.	2r	.	8FF#'	8r'	.	8r'	8b'J 8dd)	2r	.	2r	.	2r	2r	.	2r	.	2r	.
.	.	.	.	.	.	.	.	8r	8E'L 8B	.	8d'L	8r	.	.	.	.	.	.	.	.	.	.	.
.	.	.	.	(8qqb/	.	.	.	.	.	.	.	.	.	.	.	.	.	.	.	.	.	.	.
.	.	.	.	16bbJk)	.	.	.	.	.	.	.	.	.	.	.	.	.	.	.	.	.	.	.
.	.	.	.	8.GL 8.g	.	.	.	8r	8E'J 8B	.	8d'J	(8b'L 8dd	.	.	.	.	.	.	.	.	.	.	.
.	.	.	.	.	.	.	.	8FFn'	8r'	.	8r'	8b'J 8dd)	.	.	.	.	.	.	.	.	.	.	.
.	.	.	.	16ggJk	.	.	.	.	.	.	.	.	.	.	.	.	.	.	.	.	.	.	.
=4	=4	=4	=4	=4	=4	=4	=4	=4	=4	=4	=4	=4	=4	=4	=4	=4	=4	=4	=4	=4	=4	=4	=4
2r	.	2r	.	(16fnLL	mp	2r	.	8r'	8D' 8B	.	8d'	8r	2r	.	2r	.	2r	2r	.	2r	.	2r	.
.	.	.	.	16e)	.	.	.	.	.	.	.	.	.	.	.	.	.	.	.	.	.	.	.
.	.	.	.	(16ccn	.	.	.	8EE'L	8r	.	8r	(8b'L 8dd	.	.	.	.	.	.	.	.	.	.	.
.	.	.	.	16bJJ)	.	.	.	.	.	.	.	.	.	.	.	.	.	.	.	.	.	.	.
.	.	.	.	(16ffnLL	.	.	.	8EE'J	8r	.	8r	8b'J 8dd)	.	.	.	.	.	.	.	.	.	.	.
.	.	.	.	16ee)	.	.	.	.	.	.	.	.	.	.	.	.	.	.	.	.	.	.	.
.	.	.	.	(16fffn	.	.	.	8r	8D' 8B	.	8d'	8r	.	.	.	.	.	.	.	.	.	.	.
.	.	.	.	16eeeJJ)	.	.	.	.	.	.	.	.	.	.	.	.	.	.	.	.	.	.	.
!!pagebreak:original
=5	=5	=5	=5	=5	=5	=5	=5	=5	=5	=5	=5	=5	=5	=5	=5	=5	=5	=5	=5	=5	=5	=5	=5
*M3/4	*	*M3/4	*	*M3/4	*	*M3/4	*	*M3/4	*M3/4	*	*M3/4	*M3/4	*M3/4	*	*M3/4	*	*M3/4	*M3/4	*	*M3/4	*	*M3/4	*
4%3r	.	4%3r	.	(16fnLL	.	4%3r	.	8EE'	8r	.	8r	(8b'L 8dd	4%3r	.	4%3r	.	4%3r	4%3r	.	4%3r	.	4%3r	.
.	.	.	.	16e)	.	.	.	.	.	.	.	.	.	.	.	.	.	.	.	.	.	.	.
.	.	.	.	(16ffn	.	.	.	8r'	8D'L 8B	.	8d'L	8b'J 8dd)	.	.	.	.	.	.	.	.	.	.	.
.	.	.	.	16eeJJ)	.	.	.	.	.	.	.	.	.	.	.	.	.	.	.	.	.	.	.
.	.	.	.	(16fffn^LL	.	.	.	8r	8D'J 8B	.	8d'J	8r	.	.	.	.	.	.	.	.	.	.	.
.	.	.	.	16eee)	.	.	.	.	.	.	.	.	.	.	.	.	.	.	.	.	.	.	.
.	.	.	.	(16fn	.	.	.	8FFn'	8r'	.	8r	(8b' 8dd	.	.	.	.	.	.	.	.	.	.	.
.	.	.	.	16eJJ)	.	.	.	.	.	.	.	.	.	.	.	.	.	.	.	.	.	.	.
.	.	.	.	(16ff^LL	.	.	.	8r'	8D' 8B	.	8d'	8b' 8dd)	.	.	.	.	.	.	.	.	.	.	.
.	.	.	.	16ee)	.	.	.	.	.	.	.	.	.	.	.	.	.	.	.	.	.	.	.
.	.	.	.	(16fff#X	.	.	.	8FF#X'	8r'	.	8r	8r	.	.	.	.	.	.	.	.	.	.	.
.	.	.	.	16eeeJJ)	.	.	.	.	.	.	.	.	.	.	.	.	.	.	.	.	.	.	.
=6	=6	=6	=6	=6	=6	=6	=6	=6	=6	=6	=6	=6	=6	=6	=6	=6	=6	=6	=6	=6	=6	=6	=6
*M4/4	*	*M4/4	*	*M4/4	*	*M4/4	*	*M4/4	*M4/4	*	*M4/4	*M4/4	*M4/4	*	*M4/4	*	*M4/4	*M4/4	*	*M4/4	*	*M4/4	*
*	*	*	*	*8va	*	*	*	*	*	*	*	*	*	*	*	*	*	*	*	*	*	*	*
!	!	!LO:TX:a:t=pizz.	!	!LO:TX:b:i:t=più p	!	!	!	!	!LO:TX:a:t=1.	!	!	!	!LO:TX:a:i:t=stacc.	!	!	!	!	!	!	!	!	!	!
8r	.	4AA	mf	(16ccc#LL	.	4r	.	1r	8.c#L	mf	1r	1r	8c#X'L 8a	mf	(8.c#L	p	1r	(8.c#L	p	1r	.	8.ccc#L	mf
.	.	.	.	16eeee)	.	.	.	.	.	.	.	.	.	.	.	.	.	.	.	.	.	.	.
(8AAL	mf	.	.	(16cccc#'	.	.	.	.	.	.	.	.	8c#'J 8a	.	.	.	.	.	.	.	.	.	.
.	.	.	.	16ccc#'JJ)	.	.	.	.	16BJk	.	.	.	.	.	16BJk)	.	.	16BJk)	.	.	.	16bbJk	.
8A'J)	.	4r	.	(16ccc#LL	.	4AA	p	.	[4B	.	.	.	8r'	.	[4B	.	.	[4B	.	.	.	[4bb	.
.	.	.	.	16eeee)	.	.	.	.	.	.	.	.	.	.	.	.	.	.	.	.	.	.	.
8r	.	.	.	(16cccc#'	.	.	.	.	.	.	.	.	8c#' 8a	.	.	.	.	.	.	.	.	.	.
.	.	.	.	16ccc#'JJ)	.	.	.	.	.	.	.	.	.	.	.	.	.	.	.	.	.	.	.
!LO:TX:a:t=pizz.	!	!	!	!	!	!	!	!	!	!	!	!	!	!	!	!	!	!	!	!	!	!	!
4AA	.	4r	.	(16ccc#LL	.	2r	.	.	8BL]	.	.	.	8r'	.	8BL]	.	.	8BL]	.	.	.	8bbL]	.
.	.	.	.	16eeee)	.	.	.	.	.	.	.	.	.	.	.	.	.	.	.	.	.	.	.
.	.	.	.	(16cccc#'	.	.	.	.	[8AJ	.	.	.	8c#' 8a	.	[8AJ	.	.	[8AJ	.	.	.	[8aaJ	.
.	.	.	.	16ccc#'JJ)	.	.	.	.	.	.	.	.	.	.	.	.	.	.	.	.	.	.	.
8r	.	4AA	.	(16ccc#LL	.	.	.	.	8.AL]	.	.	.	8c#'L 8a	.	8.AL]	.	.	8.AL]	.	.	.	8.aaL]	.
.	.	.	.	16eeee)	.	.	.	.	.	.	.	.	.	.	.	.	.	.	.	.	.	.	.
!LO:TX:a:t=arco	!	!	!	!	!	!	!	!	!	!	!	!	!	!	!	!	!	!	!	!	!	!	!
(8AAL	.	.	.	(16cccc#'	.	.	.	.	.	.	.	.	8c#'J 8a	.	.	.	.	.	.	.	.	.	.
.	.	.	.	16ccc#'JJ)	.	.	.	.	16BJk	.	.	.	.	.	16BJk	.	.	16BJk	.	.	.	16bbJk	.
!!pagebreak:original
=7	=7	=7	=7	=7	=7	=7	=7	=7	=7	=7	=7	=7	=7	=7	=7	=7	=7	=7	=7	=7	=7	=7	=7
8AJ)	.	2r	.	(16ccc#LL	.	4AA	.	1r	[4B	.	1r	1r	8r'	.	[4B	.	1r	[4B	.	4.r	.	[4bb	.
.	.	.	.	16eeee)	.	.	.	.	.	.	.	.	.	.	.	.	.	.	.	.	.	.	.
8r	.	.	.	(16cccc#'	.	.	.	.	.	.	.	.	8c#X' 8a	.	.	.	.	.	.	.	.	.	.
.	.	.	.	16ccc#'JJ)	.	.	.	.	.	.	.	.	.	.	.	.	.	.	.	.	.	.	.
!LO:TX:a:t=pizz.	!	!	!	!	!	!	!	!	!	!	!	!	!	!	!	!	!	!	!	!	!	!	!
4AA	.	.	.	(16ccc#LL	.	4r	.	.	8BL]	.	.	.	8r'	.	8BL]	.	.	8BL]	.	.	.	8bbL]	.
.	.	.	.	16eeee)	.	.	.	.	.	.	.	.	.	.	.	.	.	.	.	.	.	.	.
*	*	*	*	*	*	*	*	*	*	*	*	*	*	*	*	*	*	*	*	*8va	*	*	*
.	.	.	.	(16cccc#'	.	.	.	.	[8AJ	.	.	.	8c#' 8a	.	[8AJ	.	.	[8AJ	.	[8aaa	mf	[8aaJ	.
.	.	.	.	16ccc#'JJ)	.	.	.	.	.	.	.	.	.	.	.	.	.	.	.	.	.	.	.
8r	.	4AA	.	(16ccc#LL	.	4r	.	.	8AL]	.	.	.	8c#'L 8a	.	8AL]	.	.	8AL]	.	8aaaL]	.	8aaL]	.
.	.	.	.	16eeee)	.	.	.	.	.	.	.	.	.	.	.	.	.	.	.	.	.	.	.
!LO:TX:a:t=arco	!	!	!	!	!	!	!	!	!	!	!	!	!	!	!	!	!	!	!	!	!	!	!
(8AAL	.	.	.	(16cccc#'	.	.	.	.	[8E#X	.	.	.	8c#'J 8a	.	([8E#XJ	.	.	([8E#XJ	.	([8eee#XJ	.	([8ee#XJ	.
.	.	.	.	16ccc#'JJ)	.	.	.	.	.	.	.	.	.	.	.	.	.	.	.	.	.	.	.
8AJ)	.	4r	.	(16ccc#LL	.	4AA	.	.	8E#]	.	.	.	8r'	.	8E#L]	.	.	8E#L]	.	8eee#L]	.	8ee#L]	.
.	.	.	.	16eeee)	.	.	.	.	.	.	.	.	.	.	.	.	.	.	.	.	.	.	.
*	*	*	*	*	*	*	*	*	*	*	*	*	*	*	*	*	*	*	*	*X8va	*	*	*
8r	.	.	.	(16cccc#'	.	.	.	.	8F#J	.	.	.	8c#' 8a	.	8F#J)	.	.	8F#J)	.	8fff#J)	.	8ff#J)	.
.	.	.	.	16ccc#'JJ)	.	.	.	.	.	.	.	.	.	.	.	.	.	.	.	.	.	.	.
=8	=8	=8	=8	=8	=8	=8	=8	=8	=8	=8	=8	=8	=8	=8	=8	=8	=8	=8	=8	=8	=8	=8	=8
!LO:TX:a:t=pizz.	!	!	!	!	!	!	!	!	!	!	!	!	!	!	!	!	!	!	!	!	!	!	!
4AA	.	4r	.	(16ccc#LL	.	2r	.	1r	8.c#L	.	1r	1r	8r'	.	(8.c#L	.	1r	(8.c#L	.	2r	.	8.ccc#L	.
.	.	.	.	16eeee)	.	.	.	.	.	.	.	.	.	.	.	.	.	.	.	.	.	.	.
.	.	.	.	(16cccc#'	.	.	.	.	.	.	.	.	8c#X' 8a	.	.	.	.	.	.	.	.	.	.
.	.	.	.	16ccc#'JJ)	.	.	.	.	16BJk	.	.	.	.	.	16BJk)	.	.	16BJk)	.	.	.	16bbJk	.
8r	.	4AA	.	(16ccc#LL	.	.	.	.	8.BL	.	.	.	8c#'L 8a	.	(8.BL	.	.	(8.BL	.	.	.	8.bbL	.
.	.	.	.	16cccc#)	.	.	.	.	.	.	.	.	.	.	.	.	.	.	.	.	.	.	.
!LO:TX:a:t=arco	!	!	!	!	!	!	!	!	!	!	!	!	!	!	!	!	!	!	!	!	!	!	!
(8AAL	.	.	.	(16aaa'	.	.	.	.	.	.	.	.	8c#'J 8a	.	.	.	.	.	.	.	.	.	.
.	.	.	.	16aa'JJ)	.	.	.	.	16AJk	.	.	.	.	.	16AJk)	.	.	16AJk)	.	.	.	16aaJk	.
8AJ)	.	2r	.	(16aaLL	.	4AA	.	.	8.AL	.	.	.	8r'	.	(8.AL	.	.	(8.AL	.	4r	.	8.aaL	.
.	.	.	.	16cccc#)	.	.	.	.	.	.	.	.	.	.	.	.	.	.	.	.	.	.	.
8r	.	.	.	(16aaa'	.	.	.	.	.	.	.	.	8c#' 8a	.	.	.	.	.	.	.	.	.	.
.	.	.	.	16aa'JJ)	.	.	.	.	16GJk	.	.	.	.	.	16GJk)	.	.	16GJk)	.	.	.	16ggJk	.
*	*	*	*	*	*	*	*	*	*	*	*	*	*	*	*	*	*	*	*	*8va	*	*	*
!LO:TX:a:t=pizz.	!	!	!	!	!	!	!	!	!	!	!	!	!	!	!	!	!	!	!	!	!	!	!
4AA	.	.	.	(16aaLL	.	4r	.	.	8.GL	.	.	.	8r'	.	(8.GL	.	.	(8.GL	.	(8.gggL	.	8.ggL	.
.	.	.	.	16aaa)	.	.	.	.	.	.	.	.	.	.	.	.	.	.	.	.	.	.	.
.	.	.	.	(16fff#'	.	.	.	.	.	.	.	.	8c#' 8a	.	.	.	.	.	.	.	.	.	.
*	*	*	*	*X8va	*	*	*	*	*	*	*	*	*	*	*	*	*	*	*	*X8va	*	*	*
.	.	.	.	16ff#'JJ)	.	.	.	.	16F#Jk	.	.	.	.	.	16F#Jk)	.	.	16F#Jk)	.	16fff#Jk)	.	16ff#Jk	.
=	=	=	=	=	=	=	=	=	=	=	=	=	=	=	=	=	=	=	=	=	=	=	=
*-	*-	*-	*-	*-	*-	*-	*-	*-	*-	*-	*-	*-	*-	*-	*-	*-	*-	*-	*-	*-	*-	*-	*-
!!!system-decoration: [(s1,s2,s3,s4,s5)][(s6[(s7,s8)][(s9,s10)])][(s11)][(s12)][(s13,s14)]
